images/flags/ps.svg

<svg viewBox="0 0 640 480" xmlns="http://www.w3.org/2000/svg" xmlns:xlink="http://www.w3.org/1999/xlink"><clipPath id="a"><path d="m-118 0h682.7v512h-682.7z"/></clipPath><g clip-path="url(#a)" transform="matrix(.9375 0 0 .9375 110.6 0)"><g fill-rule="evenodd" stroke-width="1pt"><path d="m-246 0h1024v170.7h-1024z"/><path d="m-246 170.7h1024v170.6h-1024z" fill="#fff"/><path d="m-246 341.3h1024v170.7h-1024z" fill="#090"/><path d="m-246 512 512-256-512-256z" fill="#f00"/></g></g></svg>

<svg xmlns="http://www.w3.org/2000/svg" id="flag-icons-ps" viewBox="0 0 640 480">
  <defs>
    <clipPath id="a">
      <path fill-opacity=".7" d="M-118 0h682.7v512H-118z"/>
    </clipPath>
  </defs>
  <g clip-path="url(#a)" transform="translate(110.6) scale(.9375)">
    <g fill-rule="evenodd" stroke-width="1pt">
      <path d="M-246 0H778v170.7H-246z"/>
      <path fill="#fff" d="M-246 170.7H778v170.6H-246z"/>
      <path fill="#090" d="M-246 341.3H778V512H-246z"/>
      <path fill="red" d="m-246 512 512-256L-246 0v512z"/>
    </g>
  </g>
</svg>
